src/icons/logos/sentry.svg

<svg width="163" height="49" viewBox="0 0 163 49" fill="none" xmlns="http://www.w3.org/2000/svg">
<path d="M29.9396 10.3183C29.6364 9.81513 29.2083 9.3989 28.6969 9.10996C28.1855 8.82102 27.608 8.66919 27.0206 8.66919C26.4332 8.66919 25.8558 8.82102 25.3444 9.10996C24.8329 9.3989 24.4049 9.81513 24.1017 10.3183L19.3001 18.5423C22.9683 20.3737 26.0937 23.1328 28.3659 26.5456C30.6381 29.9583 31.9781 33.9061 32.2528 37.9969H28.8815C28.6073 34.4903 27.4222 31.1162 25.4435 28.2082C23.4648 25.3003 20.761 22.9595 17.5998 21.4174L13.1558 29.1015C14.9329 29.8985 16.4811 31.1295 17.6581 32.6814C18.835 34.2332 19.6029 36.0561 19.8912 37.9823H12.1488C12.0569 37.9758 11.9682 37.9466 11.8905 37.8972C11.8128 37.8478 11.7486 37.7799 11.7037 37.6995C11.6588 37.6192 11.6346 37.5289 11.6333 37.4369C11.6321 37.3448 11.6537 37.2539 11.6963 37.1723L13.8417 33.5237C13.1149 32.9172 12.2842 32.4475 11.3898 32.1372L9.26632 35.7858C9.04525 36.165 8.90173 36.5843 8.84411 37.0195C8.78648 37.4546 8.81589 37.8968 8.93063 38.3205C9.04538 38.7442 9.24316 39.1408 9.5125 39.4874C9.78183 39.8339 10.1174 40.1235 10.4996 40.3393C11.0031 40.6231 11.5707 40.7738 12.1488 40.7772H22.7517C22.9486 38.3472 22.5147 35.9076 21.4919 33.6946C20.4692 31.4816 18.8922 29.5702 16.9139 28.1456L18.5996 25.2266C21.0963 26.9414 23.1027 29.2777 24.4208 32.0047C25.7389 34.7318 26.3231 37.7554 26.1158 40.7772H35.0988C35.3079 36.1996 34.3121 31.6472 32.2107 27.5751C30.1093 23.5029 26.976 20.0536 23.1239 17.5718L26.5317 11.7339C26.6077 11.6067 26.7308 11.5146 26.8743 11.4777C27.0178 11.4408 27.17 11.4621 27.2979 11.5369C27.6847 11.7485 42.1042 36.9096 42.3742 37.2015C42.4217 37.2868 42.4459 37.3831 42.4443 37.4808C42.4427 37.5784 42.4153 37.6739 42.365 37.7576C42.3146 37.8413 42.2431 37.9102 42.1576 37.9573C42.072 38.0045 41.9756 38.0282 41.8779 38.0261H38.4044C38.4482 38.9553 38.4482 39.882 38.4044 40.8064H41.8925C42.3355 40.8093 42.7746 40.7243 43.1844 40.5563C43.5943 40.3884 43.9668 40.1408 44.2803 39.828C44.5939 39.5151 44.8422 39.1432 45.0111 38.7337C45.1799 38.3242 45.2658 37.8852 45.2639 37.4423C45.2643 36.8573 45.1081 36.2828 44.8115 35.7785L29.9396 10.3183ZM99.4974 29.3058L88.7266 15.3972H86.0412V34.0418H88.7631V19.7537L99.8404 34.0418H102.219V15.3972H99.4974V29.3058ZM72.3733 25.8469H82.0277V23.4242H72.3661V17.8126H83.2609V15.3899H69.5931V34.0418H83.3996V31.6191H72.3661L72.3733 25.8469ZM61.0187 23.4826C57.2606 22.5777 56.2098 21.8626 56.2098 20.1258C56.2098 18.5642 57.589 17.5061 59.6469 17.5061C61.5209 17.561 63.3284 18.2129 64.806 19.3669L66.2655 17.3018C64.3949 15.8354 62.0743 15.0618 59.6979 15.1126C56.0055 15.1126 53.4296 17.3018 53.4296 20.4177C53.4296 23.7745 55.6188 24.9347 59.6031 25.9053C63.1496 26.7226 64.2369 27.4815 64.2369 29.1818C64.2369 30.882 62.7774 31.9329 60.5225 31.9329C58.2777 31.9226 56.1176 31.0742 54.4658 29.5539L52.8239 31.5169C54.9396 33.3348 57.6382 34.3319 60.4277 34.3264C64.4266 34.3264 66.9952 32.1737 66.9952 28.8461C66.9733 26.0293 65.3096 24.5188 61.0187 23.4826ZM151.586 15.3972L145.974 24.1539L140.399 15.3972H137.144L144.507 26.6715V34.0491H147.309V26.5839L154.723 15.3972H151.586ZM104.423 17.922H110.531V34.0491H113.333V17.922H119.441V15.3972H104.43L104.423 17.922ZM132.401 26.7664C135.218 25.9856 136.779 24.0153 136.779 21.1985C136.779 17.6156 134.16 15.3607 129.934 15.3607H121.645V34.0345H124.418V27.3356H129.124L133.853 34.0491H137.093L131.985 26.8831L132.401 26.7664ZM124.41 24.942V17.8637H129.643C132.372 17.8637 133.933 19.1553 133.933 21.3956C133.933 23.6358 132.262 24.942 129.672 24.942H124.41Z" fill="#362D59"/>
</svg>

<svg xmlns="http://www.w3.org/2000/svg" width="163" height="49" fill="none">
    <path fill="#362D59"
        d="M29.94 10.318a3.408 3.408 0 0 0-5.838 0L19.3 18.542a23.505 23.505 0 0 1 12.953 19.455H28.88A20.2 20.2 0 0 0 17.6 21.417l-4.444 7.684a11.617 11.617 0 0 1 6.735 8.881H12.15a.554.554 0 0 1-.453-.81l2.146-3.648a7.835 7.835 0 0 0-2.452-1.387l-2.124 3.649a3.313 3.313 0 0 0 1.234 4.553 3.4 3.4 0 0 0 1.649.438h10.603a14.157 14.157 0 0 0-5.838-12.631l1.686-2.92a17.42 17.42 0 0 1 7.516 15.551h8.983a26.183 26.183 0 0 0-11.975-23.205l3.408-5.838a.562.562 0 0 1 .766-.197c.387.211 14.806 25.373 15.076 25.665a.555.555 0 0 1-.496.824h-3.474c.044.93.044 1.856 0 2.78h3.488a3.348 3.348 0 0 0 3.372-3.364c0-.585-.156-1.16-.453-1.663L29.94 10.319Zm69.557 18.988-10.77-13.909H86.04v18.645h2.722V19.754L99.84 34.042h2.379V15.397h-2.722v13.909Zm-27.124-3.46h9.655v-2.422h-9.662v-5.611h10.895V15.39H69.593v18.652H83.4v-2.423H72.366l.007-5.772ZM61.02 23.484c-3.758-.905-4.81-1.62-4.81-3.357 0-1.562 1.38-2.62 3.438-2.62a8.8 8.8 0 0 1 5.159 1.86l1.46-2.064a10.289 10.289 0 0 0-6.568-2.19c-3.693 0-6.268 2.19-6.268 5.306 0 3.357 2.189 4.517 6.173 5.487 3.547.818 4.634 1.576 4.634 3.277 0 1.7-1.46 2.75-3.714 2.75a9.005 9.005 0 0 1-6.057-2.378l-1.642 1.963a11.632 11.632 0 0 0 7.604 2.81c3.999 0 6.567-2.153 6.567-5.48-.022-2.818-1.685-4.328-5.976-5.364Zm90.567-8.086-5.612 8.757-5.575-8.757h-3.255l7.363 11.275v7.377h2.802v-7.465l7.414-11.187h-3.137Zm-47.163 2.525h6.108v16.127h2.802V17.922h6.108v-2.525H104.43l-.007 2.525Zm27.978 8.844c2.817-.78 4.378-2.75 4.378-5.567 0-3.583-2.619-5.838-6.845-5.838h-8.289v18.673h2.773v-6.698h4.706l4.729 6.713h3.24l-5.108-7.166.416-.117Zm-7.991-1.824v-7.078h5.233c2.729 0 4.29 1.291 4.29 3.532 0 2.24-1.671 3.546-4.261 3.546h-5.262Z" />
</svg>
